X:1
T:Title
%%score [ ( 1 2 ) ( 3 4 ) ]
L:1/8
Q:1/4=240
M:4/4
K:C
V:1 treble nm="Midi_74"
V:2 treble 
V:3 bass nm="Midi_74"
V:4 bass 
V:1
 c8 | E4 F4 | G8 || A8 | B4 c4 | c4 B4 |"^E. G. Monk\n(1819-1900)" c8 |] %7
V:2
 E8 | C4 C4 | C8 || F8 | F4 E4 | D4 D4 | E8 |] %7
V:3
 C8 | C4 C4 | C8 || C8 | D4 C4 | A,4 G,4 | G,8 |] %7
V:4
 C,8 | A,4 A,4 | E,8 || F,8 | D,4 A,4 | F,4 G,4 | C,8 |] %7

